X: 201
T: Lady Scott's Strathspey
C: by J Pringle
B: John Pringle "Collection of Reels Strathspeys & Jigs", 1801 p.20#1
Z: 2011 John Chambers <jc:trillian.mit.edu>
R: strathspey
M: C
L: 1/8
K: Bb
V: 1
(d/c/) |\
B>FG>F BF ~F(G/A/) | ~B(c/d/) e/>c/d/>B/ Ac ~cd/c/ |\
B>FG>F BF ~F(G/A/) | ~B((3c/d/e/) d/>B/~c/>A/ BB B :|
(d/e/) |\
f>de>c d>Bc>B | (A/B/c/d/) .e/>(c/d/)>.B/ Ac ~cd/e/ |\
f>de>c d>Bc>B | (A/B/c/e/) .d/>(B/c/)>.A/ BB B ||
d/e/ |\
f>de>c d>B~c>B | (A/B/c/d/) (e/g/)c/B/ Ac ~cd/e/ |\
d>B ~F(G/_A/) GE HC(F/E/) | (D/E/).F/.G/ (A/B/).d/.e/ dB ~B |]
V: 2 clef=bass middle=d
z | B2B2 B2B2 | B2 e=e fc Fz | B2B2 B2B2 | de fF BF B,:|
z | d'dc'c Bbaf | zd e=e fc Fz | b2a2 b2a2 | f2F2 BF B, ||
z | zd' zc' zb za | zd e=e fc Fz | b2d2 e2 HAz | Bd fF BF B, |]

%%sep 2 1 500

